X: 11
T:Lou Rigoudin
R:---
O:Val Varaita, Italie
M:6/8
L:1/8
K:G
G2A |:B2d cBA|d2B G2A|B2d cBA|G3 G2A|B2d cBA|d2B G2A|B2d cBA|G3 G3|
A3 d3|B2G GFG|A2A cBA|G3 GFG|A3 d3|B2G GFG|A2A cBA|["n bbois" G3 G2A :|["bbin" G3 G3

%%footer $D   Galouvielle-MBe 2006 \n--- (Val Varaita, Italie)
